fs/table_lightning_16_regular.svg

<svg viewBox="0 0 16 16" fill="none" xmlns="http://www.w3.org/2000/svg" height="1em" width="1em">
  <path d="M4.5 2C3.11929 2 2 3.11929 2 4.5V11.5C2 12.8807 3.11929 14 4.5 14H7.72078L7.97078 13H6V11H6.08724C6.09639 10.9743 6.10629 10.9487 6.11694 10.9231L6.50156 10H6V6L8.16823 6L8.20028 5.92308C8.43318 5.36411 8.97934 5 9.58489 5H13.0578C13.4208 5 13.7459 5.12604 14 5.33203V4.5C14 3.11929 12.8807 2 11.5 2H4.5ZM9.58489 5H6V3H10V5L9.58489 5ZM3 11H5V13H4.5C3.67157 13 3 12.3284 3 11.5V11ZM3 6H5V10H3V6ZM4.5 3H5V5H3V4.5C3 3.67157 3.67157 3 4.5 3ZM13 4.5V5H11V3H11.5C12.3284 3 13 3.67157 13 4.5ZM8.61013 12C8.93542 12 9.1741 12.3057 9.0952 12.6213L8.66072 14.3592C8.53991 14.8424 9.12281 15.1859 9.48695 14.846L14.3595 10.2983C14.8571 9.83383 14.5285 9 13.8478 9H13.4442C13.103 9 12.862 8.66565 12.9699 8.34189L13.5311 6.65811C13.6391 6.33435 13.3981 6 13.0568 6H9.58385C9.382 6 9.19995 6.12137 9.12231 6.30769L7.03898 11.3077C6.90175 11.637 7.14373 12 7.50052 12H8.61013Z" fill="#212121"/>
</svg>

<svg viewBox="0 0 16 16" fill="none" xmlns="http://www.w3.org/2000/svg" height="1em" width="1em">
  <path d="M4.5 2A2.5 2.5 0 0 0 2 4.5v7A2.5 2.5 0 0 0 4.5 14h3.22l.25-1H6v-2h.087l.03-.077.385-.923H6V6h2.168l.032-.077A1.5 1.5 0 0 1 9.585 5h3.473c.363 0 .688.126.942.332V4.5A2.5 2.5 0 0 0 11.5 2h-7Zm5.085 3H6V3h4v2h-.415ZM3 11h2v2h-.5A1.5 1.5 0 0 1 3 11.5V11Zm0-5h2v4H3V6Zm1.5-3H5v2H3v-.5A1.5 1.5 0 0 1 4.5 3ZM13 4.5V5h-2V3h.5A1.5 1.5 0 0 1 13 4.5ZM8.61 12a.5.5 0 0 1 .485.621l-.434 1.738c-.121.483.462.827.826.487l4.873-4.548A.75.75 0 0 0 13.848 9h-.404a.5.5 0 0 1-.474-.658l.561-1.684A.5.5 0 0 0 13.057 6H9.584a.5.5 0 0 0-.462.308l-2.083 5a.5.5 0 0 0 .462.692h1.11Z" fill="#212121"/>
</svg>
